assets/images/logo.svg

<?xml version="1.0" encoding="UTF-8"?>
<svg width="223px" height="97px" viewBox="0 0 223 97" version="1.1" xmlns="http://www.w3.org/2000/svg" xmlns:xlink="http://www.w3.org/1999/xlink">
    <!-- Generator: Sketch 57.1 (83088) - https://sketch.com -->
    <title>logo</title>
    <desc>Created with Sketch.</desc>
    <g id="Page-1" stroke="none" stroke-width="1" fill="none" fill-rule="evenodd">
        <g id="logo" fill="#FFFFFF" fill-rule="nonzero">
            <path d="M63.9734118,17.16 C64.8267494,15.9653274 65.4027436,15.0906694 65.7014118,14.536 C66.0000799,13.9813306 66.1494118,13.4906688 66.1494118,13.064 C66.1494118,12.6373312 66.021413,12.2106688 65.7654118,11.784 C65.5094105,11.3573312 65.0400818,10.7600038 64.3574118,9.992 C63.6747417,9.30932992 63.205413,8.71200256 62.9494118,8.2 C62.6934105,7.68799744 62.5654118,7.0053376 62.5654118,6.152 C62.5654118,4.18932352 63.1200729,2.80267072 64.2294118,1.992 C65.3387506,1.18132928 67.1307327,0.776 69.6054118,0.776 L85.0934118,0.776 C87.482757,0.776 89.1894066,1.22399552 90.2134118,2.12 C91.2374169,3.01600448 91.7494118,4.57332224 91.7494118,6.792 C91.7494118,8.15734016 91.4080818,9.1599968 90.7254118,9.8 C90.0427417,10.4400032 88.4640908,11.2719949 85.9894118,12.296 C85.3920754,12.5520013 84.7520818,13.0213299 84.0694118,13.704 C83.3867417,14.3866701 82.4907506,15.4533261 81.3814118,16.904 L63.5894118,39.688 C64.4427494,41.6506765 65.5520716,43.8479878 66.9174118,46.28 C68.2827519,48.7120122 69.7334041,51.165321 71.2694118,53.64 C72.8054194,56.114679 74.3627372,58.4399891 75.9414118,60.616 C77.5200863,62.7920109 78.9494054,64.6053261 80.2294118,66.056 C84.069431,70.4080218 87.7813938,73.5866566 91.3654118,75.592 C94.9494297,77.5973434 98.7040588,78.6 102.629412,78.6 C103.994752,78.6 105.21074,78.5360006 106.277412,78.408 C107.344084,78.2799994 108.496072,78.0240019 109.733412,77.64 C110.970751,77.2559981 112.357404,76.6586707 113.893412,75.848 C115.429419,75.0373293 117.434733,73.9920064 119.909412,72.712 C121.104084,72.0293299 122.469404,71.688 124.005412,71.688 C126.138756,71.688 127.973404,72.5199917 129.509412,74.184 C131.045419,75.8480083 131.813412,77.8319885 131.813412,80.136 C131.813412,82.269344 131.088086,84.3173235 129.637412,86.28 C128.186738,88.2426765 126.245424,89.9493261 123.813412,91.4 C121.3814,92.8506739 118.565428,94.0239955 115.365412,94.92 C112.165396,95.8160045 108.816096,96.264 105.317412,96.264 C98.6613785,96.264 92.3254418,94.6426829 86.3094118,91.4 C80.2933817,88.1573171 74.8107698,83.3786982 69.8614118,77.064 C68.1547366,74.930656 66.640085,72.9253427 65.3174118,71.048 C63.9947385,69.1706573 62.672085,67.165344 61.3494118,65.032 C60.0267385,62.898656 58.6614188,60.4880134 57.2534118,57.8 C55.8454047,55.1119866 54.2027545,51.9333517 52.3254118,48.264 L51.1734118,45.96 L51.1734118,61.576 C55.6107673,61.576 57.8294118,63.538647 57.8294118,67.464 C57.8294118,69.256009 57.0614194,70.8773261 55.5254118,72.328 L41.7014118,85.896 C39.9947366,87.4320077 38.2454207,88.2 36.4534118,88.2 C34.6614028,88.2 33.1254182,87.5813395 31.8454118,86.344 C30.5654054,85.1066605 29.9254118,83.592009 29.9254118,81.8 C29.9254118,81.2879974 29.9467449,80.8400019 29.9894118,80.456 C30.0320786,80.0719981 30.1814105,79.6666688 30.4374118,79.24 C30.693413,78.8133312 31.0560761,78.2586701 31.5254118,77.576 C31.9947474,76.8933299 32.6560742,76.0400051 33.5094118,75.016 C34.4480831,73.8213274 35.2160754,72.2426765 35.8134118,70.28 C36.4107481,68.3173235 36.7094118,66.2266778 36.7094118,64.008 L36.7094118,21.768 C36.7094118,19.634656 36.6027462,18.0773382 36.3894118,17.096 C36.1760774,16.1146618 35.7280818,15.2826701 35.0454118,14.6 C33.5947378,12.8933248 31.1627622,12.04 27.7494118,12.04 C24.0800601,12.04 21.050757,13.1706554 18.6614118,15.432 C16.2720665,17.6933446 15.0774118,20.5306496 15.0774118,23.944 C15.0774118,26.2480115 15.6107398,28.103993 16.6774118,29.512 C17.7440838,30.920007 19.1307366,31.624 20.8374118,31.624 C21.5200818,31.624 22.0534098,31.5600006 22.4374118,31.432 C22.8214137,31.3039994 23.5680729,30.9840026 24.6774118,30.472 C25.7867506,29.8746637 26.8534066,29.576 27.8774118,29.576 C29.7547545,29.576 31.269406,30.2159936 32.4214118,31.496 C33.5734175,32.7760064 34.1494118,34.482656 34.1494118,36.616 C34.1494118,38.1520077 33.7867487,39.5813267 33.0614118,40.904 C32.3360748,42.2266733 31.3334182,43.3999949 30.0534118,44.424 C28.7734054,45.4480051 27.280087,46.2586637 25.5734118,46.856 C23.8667366,47.4533363 22.0747545,47.752 20.1974118,47.752 C17.3813977,47.752 14.778757,47.1973389 12.3894118,46.088 C10.0000665,44.9786611 7.93075384,43.4640096 6.18141176,41.544 C4.43206968,39.6239904 3.06675,37.3413466 2.08541176,34.696 C1.10407352,32.0506534 0.613411765,29.1920154 0.613411765,26.12 C0.613411765,22.2799808 1.25340536,18.7813491 2.53341176,15.624 C3.81341816,12.4666509 5.60540024,9.73601152 7.90941176,7.432 C10.2134233,5.12798848 12.9653958,3.35733952 16.1654118,2.12 C19.3654278,0.88266048 22.9280588,0.264 26.8534118,0.264 C27.7920831,0.264 29.0720703,0.30666624 30.6934118,0.392 C32.3147532,0.47733376 34.1494015,0.60533248 36.1974118,0.776 C37.2214169,0.86133376 38.0747417,0.92533312 38.7574118,0.968 C39.4400818,1.01066688 40.0374092,1.05333312 40.5494118,1.096 C41.0614143,1.13866688 41.530743,1.16 41.9574118,1.16 L43.4934118,1.16 C45.9680908,1.16 48.4427327,1.03200128 50.9174118,0.776 C51.6000818,0.69066624 52.2614086,0.62666688 52.9014118,0.584 C53.541415,0.54133312 54.0320767,0.52 54.3734118,0.52 C56.1654207,0.52 57.6160729,1.03199488 58.7254118,2.056 C59.8347506,3.08000512 60.3894118,4.4453248 60.3894118,6.152 C60.3894118,7.60267392 60.0054156,8.7546624 59.2374118,9.608 C58.4694079,10.4613376 57.1894207,11.1013312 55.3974118,11.528 C53.6907366,11.9546688 52.5600812,12.6159955 52.0054118,13.512 C51.4507423,14.4080045 51.1734118,15.9653222 51.1734118,18.184 L51.1734118,33.416 L63.9734118,17.16 Z M94.224706,26.088 C95.931381,23.0159846 107.915361,20.7333408 110.176706,19.24 C112.438051,17.7466592 115.104691,17 118.176706,17 C126.283413,17 130.336706,21.5226214 130.336706,30.568 L130.336706,46.824 C134.091391,46.9946675 135.968706,48.7439834 135.968706,52.072 C135.968706,54.1200102 135.115381,55.7839936 133.408706,57.064 L123.552706,65 C122.614035,65.7680038 121.846042,66.3013318 121.248706,66.6 C120.65137,66.8986682 120.011376,67.048 119.328706,67.048 C117.792698,67.048 116.470045,66.514672 115.360706,65.448 C114.251367,64.381328 113.696706,63.1226739 113.696706,61.672 C113.696706,60.4773274 114.251367,59.0693414 115.360706,57.448 C116.299377,56.1679936 116.896705,55.0373382 117.152706,54.056 C117.408707,53.0746618 117.536706,51.4320115 117.536706,49.128 L117.536706,38.76 C117.536706,33.2986394 115.78739,30.568 112.288706,30.568 C110.923366,30.568 109.579379,31.101328 108.256706,32.168 C106.934033,33.234672 105.931376,34.5359923 105.248706,36.072 C105.078038,36.4986688 104.907373,37.1386624 104.736706,37.992 C104.566038,38.8453376 104.416707,39.7839949 104.288706,40.808 C104.160705,41.8320051 104.05404,42.8559949 103.968706,43.88 C103.883372,44.9040051 103.840706,45.8426624 103.840706,46.696 C103.840706,49.4266803 104.118036,51.325328 104.672706,52.392 C105.227375,53.458672 106.400697,54.3759962 108.192706,55.144 C110.240716,56.0826714 111.264706,57.5759898 111.264706,59.624 C111.264706,63.2080179 109.088728,65 104.736706,65 L91.168706,65 C86.6460166,65 84.3847059,63.3360166 84.3847059,60.008 C84.3847059,58.7279936 84.6620364,57.7680032 85.2167059,57.128 C85.7713753,56.4879968 86.9020307,55.7413376 88.6087059,54.888 C89.7180448,54.3759974 90.422038,53.7146707 90.720706,52.904 C91.019374,52.0933293 91.168706,50.5786778 91.168706,48.36 L91.168706,33.512 L89.7607059,33.512 C86.3473555,33.512 84.6407059,31.8906829 84.6407059,28.648 C84.6407059,27.7946624 84.8753702,26.9413376 85.3447059,26.088 C85.8140416,25.2346624 86.432702,24.5520026 87.2007059,24.04 L95.520706,18.024 C96.459377,17.3413299 97.739364,17 99.360706,17 C100.81138,17 101.984701,17.5119949 102.880706,18.536 C103.77671,19.5600051 104.224706,20.9253248 104.224706,22.632 L94.224706,26.088 Z M162.54,17 C165.526682,17 168.32132,17.6399936 170.924,18.92 C173.52668,20.2000064 175.78799,21.9279891 177.708,24.104 C179.62801,26.2800109 181.142661,28.8613184 182.252,31.848 C183.361339,34.8346816 183.916,38.0346496 183.916,41.448 C183.916,44.9466842 183.361339,48.1893184 182.252,51.176 C181.142661,54.1626816 179.62801,56.7439891 177.708,58.92 C175.78799,61.0960109 173.52668,62.8239936 170.924,64.104 C168.32132,65.3840064 165.526682,66.024 162.54,66.024 C159.467985,66.024 156.609347,65.3840064 153.964,64.104 C151.318653,62.8239936 149.036,61.0746778 147.116,58.856 C145.19599,56.6373222 143.702672,54.0133485 142.636,50.984 C141.569328,47.9546515 141.036,44.6906842 141.036,41.192 C141.036,38.1199846 141.633327,35.0053491 142.828,31.848 C144.022673,28.6906509 145.601324,26.0026778 147.564,23.784 C151.404019,19.2613107 156.395969,17 162.54,17 Z M162.54,28.136 C160.065321,28.136 157.996008,29.373321 156.332,31.848 C154.667992,34.322679 153.836,37.4799808 153.836,41.32 C153.836,45.3306867 154.646659,48.5946541 156.268,51.112 C157.889341,53.6293459 159.979987,54.888 162.54,54.888 C165.014679,54.888 167.062659,53.6293459 168.684,51.112 C170.305341,48.5946541 171.116,45.373353 171.116,41.448 C171.116,37.6079808 170.305341,34.4293459 168.684,31.912 C167.062659,29.3946541 165.014679,28.136 162.54,28.136 Z M208.439294,48.104 C208.439294,50.6640128 209.207286,51.944 210.743294,51.944 C211.169963,51.944 211.553959,51.8373344 211.895294,51.624 C212.236629,51.4106656 212.748624,50.9626701 213.431294,50.28 C214.711301,48.8293261 216.119286,48.104 217.655294,48.104 C219.105968,48.104 220.343289,48.6586611 221.367294,49.768 C222.391299,50.8773389 222.903294,52.1999923 222.903294,53.736 C222.903294,55.3573414 222.540631,56.871993 221.815294,58.28 C221.089957,59.688007 220.087301,60.9039949 218.807294,61.928 C217.527288,62.9520051 215.991303,63.7413306 214.199294,64.296 C212.407285,64.8506694 210.487304,65.128 208.439294,65.128 C204.001939,65.128 200.673972,63.8480128 198.455294,61.288 C197.857958,60.6053299 197.388629,59.9653363 197.047294,59.368 C196.705959,58.7706637 196.428629,58.0666707 196.215294,57.256 C196.00196,56.4453293 195.852628,55.4853389 195.767294,54.376 C195.68196,53.2666611 195.639294,51.9013414 195.639294,50.28 L195.639294,28.52 L192.567294,28.52 C190.348616,28.52 188.748632,28.157337 187.767294,27.432 C186.785956,26.706663 186.295294,25.4906752 186.295294,23.784 C186.295294,23.1013299 186.33796,22.5253357 186.423294,22.056 C186.508628,21.5866643 186.721959,21.0960026 187.063294,20.584 C187.404629,20.0719974 187.916624,19.4960032 188.599294,18.856 C189.281964,18.2159968 190.220621,17.3840051 191.415294,16.36 C192.439299,15.5066624 193.313957,14.5893382 194.039294,13.608 C194.764631,12.6266618 195.85262,10.9413453 197.303294,8.552 C198.241965,6.9306586 199.180623,5.82133632 200.119294,5.224 C201.057965,4.62666368 202.167288,4.328 203.447294,4.328 C206.775311,4.328 208.439294,6.4186458 208.439294,10.6 L208.439294,18.024 L215.863294,18.024 C220.129982,18.024 222.263294,19.8586483 222.263294,23.528 C222.263294,26.8560166 220.129982,28.52 215.863294,28.52 L208.439294,28.52 L208.439294,48.104 Z" id="Knot"></path>
        </g>
    </g>
</svg>

<svg xmlns="http://www.w3.org/2000/svg" viewBox="0 0 223 97" fill="currentColor"><path fill-rule="nonzero" d="M63.973 17.16c.854-1.195 1.43-2.07 1.728-2.624.3-.555.448-1.045.448-1.472 0-.427-.128-.853-.384-1.28-.256-.427-.725-1.024-1.408-1.792-.682-.683-1.152-1.28-1.408-1.792s-.384-1.195-.384-2.048c0-1.963.555-3.35 1.664-4.16 1.11-.81 2.902-1.216 5.376-1.216h15.488c2.39 0 4.096.448 5.12 1.344 1.024.896 1.536 2.453 1.536 4.672 0 1.365-.34 2.368-1.024 3.008-.682.64-2.26 1.472-4.736 2.496-.597.256-1.237.725-1.92 1.408-.682.683-1.578 1.75-2.688 3.2L63.59 39.688c.854 1.963 1.963 4.16 3.328 6.592a194.663 194.663 0 004.352 7.36c1.536 2.475 3.094 4.8 4.672 6.976 1.58 2.176 3.008 3.99 4.288 5.44 3.84 4.352 7.552 7.53 11.136 9.536 3.584 2.005 7.34 3.008 11.264 3.008a30.91 30.91 0 003.648-.192c1.067-.128 2.22-.384 3.456-.768 1.238-.384 2.624-.981 4.16-1.792 1.536-.81 3.542-1.856 6.016-3.136 1.195-.683 2.56-1.024 4.096-1.024 2.134 0 3.968.832 5.504 2.496 1.536 1.664 2.304 3.648 2.304 5.952 0 2.133-.725 4.181-2.176 6.144-1.45 1.963-3.392 3.67-5.824 5.12-2.432 1.45-5.248 2.624-8.448 3.52-3.2.896-6.549 1.344-10.048 1.344-6.656 0-12.992-1.621-19.008-4.864-6.016-3.243-11.498-8.021-16.448-14.336a124.344 124.344 0 01-4.544-6.016 122.79 122.79 0 01-3.968-6.016c-1.322-2.133-2.688-4.544-4.096-7.232-1.408-2.688-3.05-5.867-4.928-9.536l-1.152-2.304v15.616c4.438 0 6.656 1.963 6.656 5.888 0 1.792-.768 3.413-2.304 4.864L41.701 85.896c-1.706 1.536-3.456 2.304-5.248 2.304-1.792 0-3.328-.619-4.608-1.856-1.28-1.237-1.92-2.752-1.92-4.544 0-.512.022-.96.064-1.344.043-.384.192-.79.448-1.216.256-.427.62-.981 1.088-1.664.47-.683 1.131-1.536 1.984-2.56.94-1.195 1.707-2.773 2.304-4.736.598-1.963.896-4.053.896-6.272v-42.24c0-2.133-.106-3.69-.32-4.672a4.932 4.932 0 00-1.344-2.496c-1.45-1.707-3.882-2.56-7.296-2.56-3.669 0-6.698 1.13-9.088 3.392-2.389 2.261-3.584 5.099-3.584 8.512 0 2.304.534 4.16 1.6 5.568 1.067 1.408 2.454 2.112 4.16 2.112.683 0 1.216-.064 1.6-.192.384-.128 1.131-.448 2.24-.96 1.11-.597 2.176-.896 3.2-.896 1.878 0 3.392.64 4.544 1.92 1.152 1.28 1.728 2.987 1.728 5.12a8.776 8.776 0 01-1.088 4.288c-.725 1.323-1.728 2.496-3.008 3.52s-2.773 1.835-4.48 2.432a16.155 16.155 0 01-5.376.896c-2.816 0-5.418-.555-7.808-1.664a19.307 19.307 0 01-6.208-4.544c-1.749-1.92-3.114-4.203-4.096-6.848-.98-2.645-1.472-5.504-1.472-8.576 0-3.84.64-7.339 1.92-10.496 1.28-3.157 3.072-5.888 5.376-8.192 2.304-2.304 5.056-4.075 8.256-5.312S22.928.264 26.853.264c.94 0 2.22.043 3.84.128 1.622.085 3.456.213 5.504.384 1.024.085 1.878.15 2.56.192.683.043 1.28.085 1.792.128s.982.064 1.408.064h1.536c2.475 0 4.95-.128 7.424-.384.683-.085 1.344-.15 1.984-.192.64-.043 1.131-.064 1.472-.064 1.792 0 3.243.512 4.352 1.536 1.11 1.024 1.664 2.39 1.664 4.096 0 1.45-.384 2.603-1.152 3.456-.768.853-2.048 1.493-3.84 1.92-1.706.427-2.837 1.088-3.392 1.984-.554.896-.832 2.453-.832 4.672v15.232l12.8-16.256zm30.252 8.928c1.706-3.072 13.69-5.355 15.952-6.848 2.261-1.493 4.928-2.24 8-2.24 8.106 0 12.16 4.523 12.16 13.568v16.256c3.754.17 5.632 1.92 5.632 5.248 0 2.048-.854 3.712-2.56 4.992L123.553 65c-.939.768-1.707 1.301-2.304 1.6a4.234 4.234 0 01-1.92.448c-1.536 0-2.859-.533-3.968-1.6-1.11-1.067-1.664-2.325-1.664-3.776 0-1.195.554-2.603 1.664-4.224.938-1.28 1.536-2.41 1.792-3.392.256-.981.384-2.624.384-4.928V38.76c0-5.461-1.75-8.192-5.248-8.192-1.366 0-2.71.533-4.032 1.6a10.353 10.353 0 00-3.008 3.904c-.171.427-.342 1.067-.512 1.92-.171.853-.32 1.792-.448 2.816a74.939 74.939 0 00-.32 3.072 34.12 34.12 0 00-.128 2.816c0 2.73.277 4.63.832 5.696.554 1.067 1.728 1.984 3.52 2.752 2.048.939 3.072 2.432 3.072 4.48 0 3.584-2.176 5.376-6.528 5.376H91.169c-4.523 0-6.784-1.664-6.784-4.992 0-1.28.277-2.24.832-2.88.554-.64 1.685-1.387 3.392-2.24 1.109-.512 1.813-1.173 2.112-1.984.298-.81.448-2.325.448-4.544V33.512H89.76c-3.414 0-5.12-1.621-5.12-4.864 0-.853.234-1.707.704-2.56A5.735 5.735 0 0187.2 24.04l8.32-6.016c.938-.683 2.218-1.024 3.84-1.024 1.45 0 2.624.512 3.52 1.536.896 1.024 1.344 2.39 1.344 4.096l-10 3.456zM162.54 17c2.987 0 5.781.64 8.384 1.92a21.783 21.783 0 016.784 5.184c1.92 2.176 3.435 4.757 4.544 7.744 1.11 2.987 1.664 6.187 1.664 9.6 0 3.499-.555 6.741-1.664 9.728-1.11 2.987-2.624 5.568-4.544 7.744a21.783 21.783 0 01-6.784 5.184c-2.603 1.28-5.397 1.92-8.384 1.92-3.072 0-5.93-.64-8.576-1.92a21.139 21.139 0 01-6.848-5.248c-1.92-2.219-3.413-4.843-4.48-7.872-1.067-3.03-1.6-6.293-1.6-9.792 0-3.072.597-6.187 1.792-9.344 1.195-3.157 2.773-5.845 4.736-8.064 3.84-4.523 8.832-6.784 14.976-6.784zm0 11.136c-2.475 0-4.544 1.237-6.208 3.712-1.664 2.475-2.496 5.632-2.496 9.472 0 4.01.81 7.275 2.432 9.792 1.621 2.517 3.712 3.776 6.272 3.776 2.475 0 4.523-1.259 6.144-3.776 1.621-2.517 2.432-5.739 2.432-9.664 0-3.84-.81-7.019-2.432-9.536-1.621-2.517-3.67-3.776-6.144-3.776zm45.9 19.968c0 2.56.767 3.84 2.303 3.84.427 0 .811-.107 1.152-.32.342-.213.854-.661 1.536-1.344 1.28-1.45 2.688-2.176 4.224-2.176 1.451 0 2.688.555 3.712 1.664 1.024 1.11 1.536 2.432 1.536 3.968a9.779 9.779 0 01-1.088 4.544 11.21 11.21 0 01-3.008 3.648c-1.28 1.024-2.816 1.813-4.608 2.368-1.792.555-3.712.832-5.76.832-4.437 0-7.765-1.28-9.984-3.84-.597-.683-1.066-1.323-1.408-1.92-.341-.597-.618-1.301-.832-2.112-.213-.81-.362-1.77-.448-2.88-.085-1.11-.128-2.475-.128-4.096V28.52h-3.072c-2.218 0-3.818-.363-4.8-1.088-.981-.725-1.472-1.941-1.472-3.648 0-.683.043-1.259.128-1.728.086-.47.299-.96.64-1.472.342-.512.854-1.088 1.536-1.728a88.886 88.886 0 012.816-2.496 15.878 15.878 0 002.624-2.752c.726-.981 1.814-2.667 3.264-5.056.939-1.621 1.878-2.73 2.816-3.328.939-.597 2.048-.896 3.328-.896 3.328 0 4.992 2.09 4.992 6.272v7.424h7.424c4.267 0 6.4 1.835 6.4 5.504 0 3.328-2.133 4.992-6.4 4.992h-7.424v19.584z"/></svg>
